resources/svg/redwoodjs.svg

<svg width="15" height="15" viewBox="0 0 15 15" fill="none" xmlns="http://www.w3.org/2000/svg">
<path d="M7.25193 0.0658784C7.40565 -0.0219595 7.59435 -0.0219595 7.74807 0.0658784L11.1071 1.98533L7.49994 4.33783L3.89283 1.98536L7.25193 0.0658784Z" fill="black"/>
<path d="M3.18539 2.71787L1.95854 4.25143L4.19823 6.49112L6.58464 4.93476L3.18539 2.71787Z" fill="black"/>
<path d="M1.43842 5.14552L0.519239 8.36264C0.484872 8.48292 0.496842 8.61172 0.552787 8.72361L0.607449 8.83293L3.34226 7.04936L1.43842 5.14552Z" fill="black"/>
<path d="M1.0576 9.73323L2.42919 12.4764L6.65593 10.363L4.06486 7.77197L1.0576 9.73323Z" fill="black"/>
<path d="M3.27729 13.1704L7.29693 14.9569C7.42621 15.0144 7.57379 15.0144 7.70307 14.9569L11.7227 13.1704L7.50001 11.059L3.27729 13.1704Z" fill="black"/>
<path d="M12.5708 12.4764L13.9424 9.73329L10.9351 7.77202L8.34408 10.363L12.5708 12.4764Z" fill="black"/>
<path d="M14.3925 8.83299L14.4472 8.72361C14.5032 8.61172 14.5151 8.48292 14.4808 8.36264L13.5616 5.14553L11.6577 7.04941L14.3925 8.83299Z" fill="black"/>
<path d="M13.0415 4.25144L11.8146 2.71782L8.41524 4.93476L10.8017 6.49117L13.0415 4.25144Z" fill="black"/>
<path d="M7.49994 5.5317L10.0791 7.21378L7.50001 9.7929L4.92083 7.21373L7.49994 5.5317Z" fill="black"/>
</svg>

<svg viewBox="0 0 15 15" fill="none" xmlns="http://www.w3.org/2000/svg" fill="currentColor"><path d="M7.252.066a.5.5 0 01.496 0l3.36 1.92L7.5 4.337 3.893 1.985 7.252.065zM3.185 2.718L1.96 4.25 4.2 6.49l2.386-1.556-3.4-2.217zM1.438 5.146L.52 8.363a.5.5 0 00.034.36l.054.11 2.735-1.784-1.904-1.903zm-.38 4.587l1.371 2.743 4.227-2.113-2.591-2.591-3.007 1.961zm2.219 3.437l4.02 1.787a.5.5 0 00.406 0l4.02-1.787L7.5 11.06l-4.223 2.11zm9.293-.694l1.372-2.743-3.007-1.961-2.59 2.591 4.226 2.113zm1.823-3.643l.054-.11a.5.5 0 00.034-.36l-.92-3.217-1.903 1.903 2.735 1.784zm-1.352-4.582l-1.226-1.533-3.4 2.217 2.387 1.556 2.24-2.24zM7.5 5.532l2.58 1.682L7.5 9.793l-2.58-2.58 2.58-1.68z" fill="currentColor"/></svg>
